X:127
T:Chinese Breakdown
C:Trad.
%%MIDI ratio 3 1
M:2/4
L:1/8
S:Colin Hume's website,  colinhume.com  - chords can also be printed below the stave.
Q:1/4=116
K:D
A | "D"dd BA | "D"FF2A | "D"dd BA | "A7"E3A | "A7"cc BA | "A7"cc2B | "A7"AA BA | "D"F2-FA |
"D"dd BA | "D"FF2 E | "D7"DD EF | "G"G3 d | "Em"ee2 f/e/ | "A7"cc2B | "A7"A>A Bc | "D"d3 z ||
"D"fa/f/ ed | "D"ff2f | "D"fa/f/ ed | "A7"c3e | "A7"aa2a | "A7"gg2e | "A7"c>c cB | "D"A2-"A7"A2 |
"D"fa/f/ ed | "D"ff2e | "D7"d>d c=c | "G"B4 | "Em"ee2f/e/ | "A7"cc2B | "A7"A>A Bc | "D"d3 |]

